X: 1
T: Over The Hills And Far Away
M: 4/4
L: 1/8
R: barndance
K: Dmaj
A2|:d2 d2 de fe|d2 B2 B2 A2|d2 de f2 ef|g2 e2 e4|
a2 ag f2 e2|d2 B2 g2 B2|A2 AB AB de|f2 e2 e4:|
|:a3 g f2 ef|d2 B2 B2 fg|a2 fa gfed|f2 e2 e4|
abag f2 ef|d2 B2 g2 B2|A2 AF AB de|1 f2 e2 e4:|2 f2 e2 e2||
